lib/brands/icons/google-arcore.svg

<svg xmlns="http://www.w3.org/2000/svg" fill="none" aria-hidden="true" viewBox="0 0 48 48"><g id="google-arcore-Icon"><g id="Group"><path id="Vector" fill="#E1BEE7" fill-rule="evenodd" d="M24.3923 17.0459C21.8143 17.0459 19.5758 18.4496 18.3647 20.523L23.1079 23.2569C23.906 23.7156 24.8785 23.7156 25.6767 23.2569L30.4106 20.523C29.218 18.4404 26.9702 17.0459 24.3923 17.0459V17.0459Z" clip-rule="evenodd"/><path id="Vector_2" fill="#FAFAFA" fill-rule="evenodd" d="M23.1081 23.2569L18.365 20.5229C17.7686 21.5505 17.4292 22.734 17.4292 24C17.4292 27.844 20.5393 30.9541 24.3833 30.9541C28.2274 30.9541 31.3375 27.844 31.3375 24C31.3375 22.734 30.998 21.5413 30.4017 20.5229L25.6677 23.2569C24.8879 23.7156 23.9063 23.7156 23.1081 23.2569Z" clip-rule="evenodd"/><path id="Vector_3" fill="#7B1FA2" fill-rule="evenodd" d="M39.0985 32.4954L30.4196 27.4771C29.2178 29.5596 26.9701 30.9541 24.3921 30.9541V41.9908C24.8049 41.9908 25.2086 41.8807 25.5756 41.6697L39.1077 33.8532C39.1077 33.8532 39.1169 33.8532 39.1169 33.844C39.6398 33.5504 39.6214 32.789 39.0985 32.4954V32.4954Z" clip-rule="evenodd"/><path id="Vector_4" fill="#4A148C" fill-rule="evenodd" d="M24.3923 30.9541C21.8144 30.9541 19.5666 29.5596 18.3648 27.4771L8.80518 33C9.00701 33.3578 9.30976 33.6514 9.66756 33.8624L23.1997 41.6789C23.5666 41.8899 23.9703 42 24.3832 42V30.9541H24.3923Z" clip-rule="evenodd"/><path id="Vector_5" fill="#7B1FA2" fill-rule="evenodd" d="M24.3919 17.046V6.00928C23.9791 6.00928 23.5754 6.11937 23.2085 6.33038L9.67635 14.1469C9.30938 14.3579 9.0158 14.6607 8.81396 15.0093L18.3736 20.5322C19.5754 18.4405 21.8231 17.046 24.3919 17.046V17.046Z" clip-rule="evenodd"/><path id="Vector_6" fill="#4A148C" fill-rule="evenodd" d="M39.1169 14.1468C39.1169 14.1468 39.1077 14.1468 39.1077 14.1376L25.5756 6.3211C25.2086 6.11009 24.8049 6 24.3921 6V17.0367C26.9701 17.0367 29.2178 18.4312 30.4196 20.5138L39.0985 15.5046C39.6214 15.211 39.6398 14.4495 39.1169 14.1468V14.1468Z" clip-rule="evenodd"/><path id="Vector_7" fill="#BA68C8" fill-rule="evenodd" d="M17.438 24C17.438 22.7339 17.7775 21.5413 18.3646 20.5229L8.80499 15C8.60315 15.3578 8.48389 15.7615 8.48389 16.1835V31.8073C8.48389 32.2294 8.59398 32.633 8.80499 32.9908L18.3646 27.4679C17.7775 26.4587 17.438 25.2661 17.438 24Z" clip-rule="evenodd"/><path id="Vector_8" fill="url(#paint0_linear_94_19262)" fill-rule="evenodd" d="M30.4195 27.4771C29.2177 29.5596 26.9699 30.9541 24.4011 30.9541C23.3736 30.9541 22.392 30.7248 21.5112 30.3303L33.3736 37.1835L39.1167 33.8715C39.6488 33.5688 39.6488 32.7982 39.1167 32.4954L30.4195 27.4771Z" clip-rule="evenodd"/></g></g><defs><linearGradient id="paint0_linear_94_19262" x1="35.9614" x2="32.2983" y1="37.0489" y2="24.4456" gradientUnits="userSpaceOnUse"><stop stop-color="#1A237E" stop-opacity="0.01"/><stop offset="1" stop-color="#1A237E" stop-opacity="0.3"/></linearGradient></defs></svg>

<svg xmlns="http://www.w3.org/2000/svg" fill="none" aria-hidden="true" viewBox="0 0 48 48"><g fill-rule="evenodd" clip-rule="evenodd"><path fill="#E1BEE7" d="M24.392 17.046c-2.578 0-4.816 1.404-6.027 3.477l4.743 2.734a2.57 2.57 0 0 0 2.569 0l4.734-2.734a6.917 6.917 0 0 0-6.019-3.477Z"/><path fill="#FAFAFA" d="m23.108 23.257-4.743-2.734a6.95 6.95 0 0 0 6.018 10.431 6.95 6.95 0 0 0 6.019-10.431l-4.734 2.734a2.552 2.552 0 0 1-2.56 0Z"/><path fill="#7B1FA2" d="m39.099 32.495-8.68-5.018a6.944 6.944 0 0 1-6.027 3.477v11.037c.413 0 .817-.11 1.184-.321l13.532-7.817s.009 0 .009-.009c.523-.294.504-1.055-.018-1.349Z"/><path fill="#4A148C" d="M24.392 30.954a6.944 6.944 0 0 1-6.027-3.477L8.805 33c.202.358.505.651.863.862L23.2 41.68c.367.21.77.321 1.183.321V30.954h.01Z"/><path fill="#7B1FA2" d="M24.392 17.046V6.009c-.413 0-.817.11-1.183.321L9.676 14.147c-.367.21-.66.514-.862.862l9.56 5.523a6.929 6.929 0 0 1 6.018-3.486Z"/><path fill="#4A148C" d="M39.117 14.147s-.01 0-.01-.01l-13.53-7.815A2.365 2.365 0 0 0 24.392 6v11.037a6.944 6.944 0 0 1 6.028 3.477l8.678-5.01c.523-.293.542-1.054.019-1.357Z"/><path fill="#BA68C8" d="M17.438 24c0-1.266.34-2.459.927-3.477L8.805 15a2.408 2.408 0 0 0-.321 1.183v15.624c0 .422.11.826.321 1.184l9.56-5.523A6.896 6.896 0 0 1 17.438 24Z"/><path fill="url(#a)" d="M30.42 27.477a6.94 6.94 0 0 1-6.019 3.477 7.07 7.07 0 0 1-2.89-.624l11.863 6.854 5.743-3.313a.793.793 0 0 0 0-1.376l-8.697-5.018Z"/></g><defs><linearGradient id="a" x1="35.961" x2="32.298" y1="37.049" y2="24.446" gradientUnits="userSpaceOnUse"><stop stop-color="#1A237E" stop-opacity=".01"/><stop offset="1" stop-color="#1A237E" stop-opacity=".3"/></linearGradient></defs></svg>
